images/icon-sale-white.svg

<svg width="90" height="90" viewBox="0 0 90 90" fill="none" xmlns="http://www.w3.org/2000/svg">
<g id="icon-sale">
<g id="Group 2">
<path id="Vector" d="M82.111 20.0278H78.7663L78.7696 14.0484C78.7715 10.034 75.5077 6.76632 71.4928 6.76436L46.108 6.75C46.1067 6.75 46.1061 6.75 46.1048 6.75C44.6599 6.75 43.3011 7.31257 42.2791 8.33459L4.38214 46.2315C3.00705 47.6066 2.25 49.4346 2.25 51.3795C2.25 53.3243 3.00705 55.1523 4.38214 56.5274L28.9759 81.1211C30.3953 82.5406 32.2599 83.25 34.1238 83.25C35.9884 83.25 37.8529 82.5406 39.2724 81.1211L63.1326 57.261C63.7852 56.6083 63.7852 55.5504 63.1326 54.8984C62.4799 54.2458 61.422 54.2458 60.7694 54.8984L36.9092 78.7586C35.3736 80.2942 32.8747 80.2942 31.339 78.7586L6.74532 54.1649C6.00132 53.4209 5.59147 52.4315 5.59147 51.3795C5.59147 50.3274 6.00132 49.338 6.74532 48.594L44.6416 10.6978C45.0325 10.3068 45.552 10.0915 46.1048 10.0915H46.1061L71.4908 10.1058C73.6627 10.1065 75.4294 11.8751 75.4281 14.0471L75.4203 28.0473H67.8948C67.2467 28.0473 66.66 27.7823 66.2358 27.3555C66.9348 27.0559 67.59 26.6232 68.1598 26.0535C70.5608 23.6518 70.5608 19.7452 68.1598 17.3441C65.7581 14.9425 61.8514 14.9425 59.4498 17.3441C57.0487 19.7452 57.0487 23.6518 59.4498 26.0535C60.34 26.9437 61.4377 27.503 62.5883 27.7334C63.406 29.8681 65.4755 31.3887 67.8948 31.3887H75.4183L75.4137 39.3978C75.4137 39.9506 75.1984 40.4694 74.8075 40.8597L70.2208 45.447C69.5681 46.0997 69.5681 47.1576 70.2208 47.8102C70.8727 48.4622 71.9307 48.4622 72.5833 47.8102L77.1706 43.2229C78.1913 42.2015 78.7546 40.8441 78.7552 39.3998L78.7598 31.3887H82.111C85.243 31.3887 87.7915 28.8409 87.7915 25.7083C87.7915 22.5763 85.243 20.0278 82.111 20.0278ZM61.8129 19.7067C62.3625 19.1572 63.0836 18.883 63.8054 18.883C64.5266 18.883 65.2477 19.1578 65.7972 19.7067C65.9708 19.8809 66.1144 20.0734 66.2332 20.2764C64.3993 20.8383 62.9583 22.3061 62.4316 24.1556C62.2104 24.0323 62.0009 23.8789 61.8129 23.691C60.7146 22.5919 60.7146 20.805 61.8129 19.7067ZM82.111 28.0473H78.7617L78.7644 23.3692H82.111C83.4006 23.3692 84.4501 24.4187 84.4501 25.7083C84.4501 26.9978 83.4006 28.0473 82.111 28.0473Z" fill="white"/>
<path id="Vector_2" d="M29.2179 48.9034C29.4235 49.6428 30.0951 50.1264 30.826 50.1264C30.9748 50.1264 31.1256 50.1068 31.275 50.0651L48.4261 45.2911C49.315 45.0437 49.8352 44.1222 49.5878 43.2333C49.3405 42.3451 48.4196 41.825 47.5301 42.0723L30.379 46.8457C29.4907 47.0937 28.9706 48.0145 29.2179 48.9034Z" fill="white"/>
<path id="Vector_3" d="M36.7676 51.108C35.8369 52.0386 35.3246 53.2754 35.3246 54.5917C35.3246 55.9074 35.8369 57.1442 36.7676 58.0748C37.7282 59.0348 38.9891 59.5152 40.2506 59.5152C41.5122 59.5152 42.7737 59.0348 43.7344 58.0748C45.6551 56.1541 45.6551 53.0287 43.7344 51.108C41.8137 49.1873 38.6882 49.1873 36.7676 51.108ZM41.3712 55.7117C40.7532 56.3297 39.7481 56.3297 39.1301 55.7117C38.8305 55.4127 38.6661 55.0146 38.6661 54.5911C38.6661 54.1682 38.8312 53.7701 39.1301 53.4705C39.4394 53.1618 39.8454 53.0072 40.2506 53.0072C40.6566 53.0072 41.0625 53.1618 41.3712 53.4705C41.9892 54.0886 41.9892 55.0943 41.3712 55.7117Z" fill="white"/>
<path id="Vector_4" d="M44.562 41.1605C46.4827 39.2392 46.4827 36.1144 44.562 34.1937C43.6314 33.263 42.394 32.7507 41.0783 32.7507C39.7626 32.7507 38.5252 33.263 37.5952 34.1937C35.6745 36.1144 35.6745 39.2392 37.5952 41.1605C38.5559 42.1205 39.8167 42.6009 41.0783 42.6009C42.3398 42.6009 43.6013 42.1205 44.562 41.1605ZM39.9577 36.5562C40.2573 36.2567 40.6554 36.0922 41.0783 36.0922C41.5018 36.0922 41.8999 36.2567 42.1988 36.5562C42.8169 37.1743 42.8169 38.1793 42.1988 38.7974C41.5814 39.4154 40.5757 39.4154 39.9577 38.7974C39.3403 38.1793 39.3403 37.1743 39.9577 36.5562Z" fill="white"/>
<path id="Vector_5" d="M18.8673 45.4509C18.2147 44.7983 17.1568 44.7983 16.5042 45.4509L11.7569 50.1982C11.4437 50.5114 11.2675 50.9363 11.2675 51.3794C11.2675 51.8226 11.4437 52.2474 11.7569 52.5607L32.9433 73.747C33.2689 74.0727 33.697 74.2358 34.1245 74.2358C34.552 74.2358 34.9795 74.0727 35.3058 73.747L66.9818 42.0703C67.6345 41.4177 67.6345 40.3598 66.9818 39.7071L45.7962 18.5215C45.4829 18.2082 45.058 18.032 44.6149 18.032C44.1718 18.032 43.7469 18.2082 43.4336 18.5215L25.9555 35.9995C25.3029 36.6522 25.3029 37.7101 25.9555 38.3627C26.6075 39.0147 27.6654 39.0147 28.3181 38.3627L44.6149 22.0659L63.438 40.889L34.1245 70.2026L15.3014 51.3794L18.8673 47.8134C19.5193 47.1608 19.52 46.1036 18.8673 45.4509Z" fill="white"/>
<path id="Vector_6" d="M66.677 49.6832C66.2371 49.6832 65.8064 49.862 65.4957 50.1727C65.185 50.4834 65.0062 50.9147 65.0062 51.354C65.0062 51.7932 65.185 52.2246 65.4957 52.5352C65.8064 52.8459 66.2371 53.0247 66.677 53.0247C67.1162 53.0247 67.5469 52.8459 67.8582 52.5352C68.1689 52.2246 68.3477 51.7932 68.3477 51.354C68.3477 50.9147 68.1689 50.4834 67.8582 50.1727C67.5469 49.862 67.1162 49.6832 66.677 49.6832Z" fill="white"/>
<path id="Vector_7" d="M23.5917 43.0871C23.9043 42.7764 24.0818 42.347 24.0818 41.9058C24.0818 41.4666 23.9043 41.0372 23.5917 40.7246C23.281 40.4139 22.8516 40.2351 22.4111 40.2351C21.9712 40.2351 21.5405 40.4139 21.2298 40.7246C20.9185 41.0352 20.7404 41.4666 20.7404 41.9058C20.7404 42.347 20.9185 42.7764 21.2298 43.0871C21.5418 43.3997 21.9712 43.5766 22.4111 43.5766C22.8516 43.5766 23.281 43.3997 23.5917 43.0871Z" fill="white"/>
</g>
</g>
</svg>

<svg xmlns="http://www.w3.org/2000/svg" width="90" height="90" fill="none"><g fill="#fff"><path d="M82.11 20.03h-3.34v-5.98a7.29 7.29 0 0 0-7.28-7.29l-25.38-.01c-1.45 0-2.8.56-3.83 1.58l-37.9 37.9a7.23 7.23 0 0 0-2.13 5.15c0 1.94.76 3.77 2.13 5.15l24.6 24.6a7.26 7.26 0 0 0 10.3 0l23.85-23.87a1.67 1.67 0 1 0-2.36-2.36L36.9 78.76a3.94 3.94 0 0 1-5.57 0l-24.6-24.6a3.91 3.91 0 0 1 0-5.57l37.9-37.9c.4-.38.91-.6 1.46-.6l25.4.02a3.94 3.94 0 0 1 3.93 3.94l-.01 14h-7.53c-.64 0-1.23-.27-1.65-.7a6.17 6.17 0 1 0-3.65.38 5.69 5.69 0 0 0 5.3 3.66h7.53v8c0 .56-.22 1.08-.61 1.47l-4.59 4.59a1.67 1.67 0 0 0 2.36 2.36l4.6-4.59a5.38 5.38 0 0 0 1.58-3.82v-8.01h3.35a5.69 5.69 0 0 0 0-11.36Zm-20.3-.32a2.8 2.8 0 0 1 4.42.57 5.7 5.7 0 0 0-3.8 3.88 2.8 2.8 0 0 1-.62-4.45Zm20.3 8.34h-3.35v-4.68h3.35a2.34 2.34 0 0 1 0 4.68Z"/><path d="M29.22 48.9a1.67 1.67 0 0 0 2.05 1.17l17.16-4.78a1.67 1.67 0 0 0-.9-3.22l-17.15 4.78a1.67 1.67 0 0 0-1.16 2.05ZM36.77 51.1a4.9 4.9 0 0 0 0 6.97 4.91 4.91 0 0 0 6.96 0 4.93 4.93 0 0 0-6.96-6.96Zm4.6 4.61a1.59 1.59 0 1 1-2.24-2.24 1.59 1.59 0 0 1 2.24 2.24ZM44.56 41.16a4.93 4.93 0 1 0-6.98-6.97 4.93 4.93 0 0 0 6.98 6.97Zm-4.6-4.6a1.57 1.57 0 0 1 2.24 0 1.59 1.59 0 1 1-2.24 0Z"/><path d="M18.87 45.45a1.67 1.67 0 0 0-2.37 0l-4.74 4.75a1.67 1.67 0 0 0 0 2.36l21.18 21.19a1.67 1.67 0 0 0 2.37 0l31.67-31.68c.65-.65.65-1.71 0-2.36L45.8 18.52a1.67 1.67 0 0 0-2.37 0L25.96 36a1.67 1.67 0 0 0 2.36 2.36l16.3-16.3L63.43 40.9 34.12 70.2 15.3 51.38l3.57-3.57c.65-.65.65-1.7 0-2.36ZM66.68 49.68A1.68 1.68 0 0 0 65 51.35a1.68 1.68 0 0 0 1.67 1.67 1.68 1.68 0 0 0 1.67-1.67 1.68 1.68 0 0 0-1.67-1.67Z"/><path d="M23.6 43.09a1.67 1.67 0 1 0-2.37-2.37 1.67 1.67 0 0 0 2.36 2.37Z"/></g></svg>
